img/radicle.svg

<svg width="117" height="25" viewBox="0 0 117 25" xmlns="http://www.w3.org/2000/svg">
  <path d="M45.1306 10.8751C45.1306 7.3366 45.1306 3.86044 45.1306 0.356201C46.6513 0.356201 48.1158 0.356201 49.6178 0.356201C49.6178 8.37572 49.6178 16.3744 49.6178 24.4074C48.1377 24.4074 46.6721 24.4074 45.1306 24.4074C45.1306 23.9757 45.1306 23.5389 45.1306 23.049C45.0048 23.1104 44.9538 23.1218 44.9205 23.153C43.2376 24.7184 41.2322 25.1116 39.0718 24.5863C36.2228 23.8946 34.5087 21.962 33.8045 19.1859C33.0899 16.3692 33.5705 13.7439 35.4978 11.4816C37.5251 9.10174 41.1011 8.4277 43.7732 9.92029C44.2194 10.1689 44.6168 10.509 45.1306 10.8751ZM45.2794 17.167C45.2825 16.3983 45.1868 15.8148 44.9538 15.2698C44.4067 13.9894 43.4456 13.2072 42.0497 13.0564C40.7329 12.9139 39.6116 13.3517 38.8169 14.4324C37.8808 15.7056 37.7716 17.1191 38.3052 18.5764C39.0416 20.587 41.3705 21.4888 43.2729 20.5037C44.6875 19.7726 45.2076 18.5056 45.2794 17.167Z"/>
  <path d="M25.9747 10.8584C25.9747 10.4008 25.9747 9.97952 25.9747 9.52077C27.4995 9.52077 28.963 9.52077 30.4275 9.52077C30.5429 9.88275 30.597 23.181 30.4805 24.4167C29.0108 24.4749 27.5328 24.425 25.9986 24.4447C25.9986 23.9673 25.9986 23.5409 25.9986 23.0125C25.8134 23.1571 25.7084 23.2299 25.6137 23.3141C24.6037 24.2128 23.4086 24.6663 22.0741 24.7651C18.4295 25.0325 15.7667 22.6557 14.8659 19.8588C13.8861 16.8143 14.2699 13.9601 16.3814 11.4659C18.3889 9.09644 21.9545 8.43386 24.6121 9.90564C25.0738 10.1605 25.4816 10.51 25.9747 10.8584ZM18.7987 16.9807C18.7987 17.4085 18.9859 18.0749 19.1815 18.5836C19.6994 19.9243 20.697 20.7231 22.1365 20.8667C23.5417 21.0071 24.6817 20.486 25.4806 19.2981C26.4604 17.8409 26.346 15.6451 25.2309 14.2877C23.8704 12.6298 21.2305 12.6038 19.8336 14.2326C19.1596 15.019 18.7987 15.9411 18.7987 16.9807Z"/>
  <path d="M95.602 20.8168C97.4304 20.8168 99.1582 20.8168 100.92 20.8168C100.92 22.0265 100.92 23.1967 100.92 24.4043C95.8784 24.4043 90.844 24.4043 85.8101 24.4043C85.6913 24.0361 85.6685 21.4211 85.791 20.8085C87.5197 20.8085 89.2609 20.8085 91.0346 20.8085C91.0346 15.1793 91.0346 9.60828 91.0346 3.97797C89.28 3.97797 87.5389 3.97797 85.8153 3.97797C85.6975 3.54943 85.6675 1.11965 85.7558 0.415479C86.1211 0.306264 94.9809 0.28338 95.602 0.401957C95.602 7.17328 95.602 13.9581 95.602 20.8168Z"/>
  <path d="M105.764 18.1185C105.859 19.2107 106.336 20.0168 107.159 20.5753C108.457 21.4563 109.861 21.4584 111.277 20.8821C111.824 20.6596 112.196 20.2175 112.459 19.6839C113.786 19.6839 115.096 19.6839 116.497 19.6839C116.343 20.1218 116.244 20.5264 116.065 20.8915C115.26 22.5443 113.964 23.6864 112.248 24.3011C110.213 25.0303 108.15 24.9845 106.142 24.2054C103.906 23.338 102.503 21.6779 101.871 19.3719C101.395 17.6379 101.418 15.9124 102.031 14.2097C103.105 11.2223 105.928 9.20031 109.101 9.14001C111.01 9.10359 112.734 9.60806 114.183 10.8947C115.449 12.0191 116.162 13.4587 116.526 15.0886C116.742 16.0569 116.82 17.0367 116.729 18.0988C116.003 18.1372 115.282 18.1122 114.563 18.1175C113.835 18.1216 113.107 18.1185 112.379 18.1185C111.651 18.1185 110.923 18.1185 110.195 18.1185C109.467 18.1185 108.739 18.1185 108.01 18.1185C107.286 18.1185 106.56 18.1185 105.764 18.1185ZM112.369 15.2883C112.369 15.2009 112.383 15.1312 112.367 15.0698C112.154 14.2617 111.719 13.6064 110.963 13.2267C109.757 12.6214 108.546 12.6692 107.395 13.3651C106.68 13.7967 106.198 14.4405 105.933 15.2893C108.101 15.2883 110.224 15.2883 112.369 15.2883Z"/>
  <path d="M84.7892 15.127C83.2655 15.127 81.7791 15.127 80.2823 15.127C80.242 15.0657 80.1929 15.0126 80.1702 14.9512C79.5899 13.3962 77.7341 12.5693 75.9118 13.3734C74.8976 13.8206 74.2662 14.6246 73.9831 15.6877C73.5966 17.146 73.7681 18.5158 74.7643 19.6984C76.0074 21.1734 78.3458 21.2576 79.6003 19.8763C79.8736 19.5747 80.0586 19.1929 80.3159 18.8029C81.7615 18.8029 83.2614 18.8029 84.8186 18.8029C84.799 18.9704 84.7964 19.1201 84.7623 19.2637C84.2487 21.3876 82.9493 22.8979 81.0501 23.8996C77.8369 25.595 73.7253 24.8347 71.3021 22.1282C67.9996 18.4399 68.9637 12.6255 73.2814 10.1957C76.5483 8.35674 80.5974 8.92987 83.1188 11.5906C83.9491 12.4664 84.4879 13.4981 84.7664 14.6694C84.7861 14.7536 84.8031 14.8389 84.8114 14.9252C84.8166 14.9731 84.8021 15.0241 84.7892 15.127Z"/>
  <path d="M58.5399 13.1051C56.7874 13.1051 55.0596 13.1051 53.2947 13.1051C53.2947 11.8965 53.2947 10.7274 53.2947 9.51978C56.5544 9.51978 59.8047 9.51978 63.1238 9.51978C63.131 9.71115 63.147 9.91187 63.147 10.1116C63.1481 13.4567 63.1481 16.8018 63.1481 20.1469C63.1481 20.3487 63.1481 20.5505 63.1481 20.7908C64.9461 20.7908 66.6738 20.7908 68.3881 20.7908C68.5204 21.1798 68.5514 23.7198 68.4403 24.4073C63.4121 24.4073 58.3777 24.4073 53.3469 24.4073C53.2394 24.0235 53.2064 21.6593 53.3019 20.8261C53.8708 20.7824 54.4546 20.8115 55.0359 20.8064C55.6078 20.8011 56.1798 20.8053 56.7523 20.8053C57.3397 20.8053 57.9287 20.8053 58.5068 20.8053C58.635 20.4267 58.667 13.8072 58.5399 13.1051Z"/>
  <path d="M12.0979 9.51758C12.0979 10.7231 12.0979 11.8798 12.0979 13.1103C11.2574 13.1248 10.4326 13.1154 9.60881 13.1165C8.76008 13.1186 7.9113 13.1165 7.06257 13.1165C6.23462 13.1165 5.40666 13.1165 4.52046 13.1165C4.52046 16.8943 4.52046 20.6263 4.52046 24.3417C4.094 24.4624 0.605363 24.4842 0 24.3813C0 19.4426 0 14.4978 0 9.51758C4.02743 9.51758 8.0351 9.51758 12.0979 9.51758Z"/>
  <path d="M60.4376 5.97387C58.762 5.97703 57.4544 4.68515 57.4575 3.03132C57.4606 1.40766 58.76 0.113725 60.4009 0.100203C62.0749 0.0866815 63.3955 1.3723 63.4027 3.02092C63.411 4.68307 62.1173 5.97077 60.4376 5.97387Z"/>
</svg>

<svg width="117" height="25" viewBox="0 0 117 25" xmlns="http://www.w3.org/2000/svg"><path d="M45.13 10.875V.356h4.488v24.051H45.13V23.05c-.126.061-.177.073-.21.104-1.683 1.565-3.689 1.959-5.85 1.433-2.848-.691-4.562-2.624-5.267-5.4-.714-2.817-.233-5.442 1.694-7.704 2.027-2.38 5.603-3.054 8.275-1.562.446.249.844.589 1.358.955zm.15 6.292c.002-.769-.093-1.352-.326-1.897-.547-1.28-1.508-2.063-2.904-2.214-1.317-.142-2.438.296-3.233 1.376-.936 1.274-1.045 2.687-.512 4.144a3.547 3.547 0 004.968 1.928c1.414-.731 1.935-1.998 2.006-3.337zm-19.305-6.309V9.521h4.452c.116.362.17 13.66.053 14.896-1.47.058-2.947.008-4.481.028v-1.433c-.186.145-.29.218-.385.302-1.01.899-2.205 1.352-3.54 1.451-3.645.267-6.307-2.11-7.208-4.906-.98-3.045-.596-5.899 1.515-8.393 2.008-2.37 5.573-3.032 8.231-1.56.462.255.87.604 1.363.952zm-7.176 6.123c0 .427.187 1.094.383 1.603.517 1.34 1.515 2.14 2.955 2.283 1.405.14 2.545-.381 3.344-1.569.98-1.457.865-3.653-.25-5.01-1.36-1.658-4-1.684-5.397-.055-.674.786-1.035 1.708-1.035 2.748zm76.803 3.836h5.318v3.587H85.81c-.119-.368-.142-2.983-.019-3.596h5.244V3.979h-5.22c-.117-.429-.147-2.858-.06-3.563.366-.109 9.226-.132 9.847-.013v20.415zm10.162-2.698c.095 1.092.572 1.898 1.395 2.456 1.298.881 2.702.883 4.118.307.547-.222.919-.665 1.182-1.198h4.038c-.154.438-.253.842-.432 1.207-.805 1.653-2.101 2.795-3.817 3.41-2.035.73-4.098.684-6.106-.096-2.236-.867-3.639-2.527-4.271-4.833-.476-1.734-.453-3.46.16-5.162a7.68 7.68 0 017.07-5.07c1.909-.036 3.633.468 5.082 1.755 1.266 1.124 1.979 2.564 2.343 4.194a9.76 9.76 0 01.203 3.01c-.726.038-1.447.013-2.166.018-.728.005-1.456.002-2.184.002h-6.615zm6.605-2.83c0-.088.014-.158-.002-.22-.213-.807-.648-1.463-1.404-1.842-1.206-.606-2.417-.558-3.568.138-.715.432-1.197 1.075-1.462 1.924h6.436zm-27.579-.162h-4.508c-.04-.061-.09-.114-.112-.176-.58-1.555-2.436-2.382-4.258-1.578-1.014.448-1.646 1.252-1.929 2.315-.386 1.458-.215 2.828.781 4.01 1.243 1.475 3.582 1.56 4.836.178.274-.301.459-.683.716-1.073h4.503c-.02.167-.023.317-.057.46-.513 2.125-1.813 3.635-3.712 4.637-3.213 1.695-7.325.935-9.748-1.772-3.302-3.688-2.338-9.502 1.98-11.932 3.266-1.84 7.315-1.266 9.837 1.395a6.61 6.61 0 011.647 3.078c.02.085.037.17.045.256.006.048-.009.1-.022.202zm-26.25-2.022h-5.245V9.52h9.829c.007.191.023.392.023.592l.001 10.035v.644h5.24c.132.389.163 2.929.052 3.616H53.347c-.108-.384-.14-2.748-.045-3.58.569-.045 1.153-.016 1.734-.02.572-.006 1.144-.002 1.716-.002h1.755c.128-.378.16-6.998.033-7.7zM12.098 9.518v3.592c-.84.015-1.665.005-2.49.007-.848.002-1.697 0-2.545 0H4.52v11.225c-.426.12-3.915.142-4.52.04V9.517h12.098zm48.34-3.544c-1.676.003-2.984-1.289-2.98-2.943C57.46 1.408 58.76.114 60.4.101c1.674-.014 2.994 1.271 3.002 2.92.008 1.662-1.286 2.95-2.965 2.953z"/></svg>
